X:1
T:On Which Side Will You Be Found?
T:On Which Side Will You Be Found?
T:Charles King Langley, Sr.
T:John Herman Alleman, 1897
T:Public Domain Courtesy of the Cyber Hymnal™
T:Public Domain Courtesy of the Cyber Hymnal™
C:Charles King Langley, Sr.
Z:Public Domain
Z:Courtesy of the Cyber Hymnal™
%%score ( 1 2 ) ( 3 4 )
L:1/8
Q:1/4=90
M:4/4
K:C
V:1 treble 
V:2 treble 
V:3 bass 
V:4 bass 
V:1
 [CE][DF] | [EG][DG][CG][FG] [EG]2 [Gc][Gd] | [Ge][Ge] [Ge]>[Fd] [Ec]2 G[Ec] | %3
w: 1.~When the|pen- du- lum of time shall for-|ev- er cease to swing, And Je-|
w: 2.~When the|Book is o- pened there in the|pre- sence of the King, And the|
w: 3.~There the|se- crets of the heart, good or|e- vil tho’ they be, He the|
 [DB][DA][Dc][DB] [Dd][DA] [Dc]>[D^F] | G6 [CE][DF] | [EG][DG][CG][FG] [EG]2 [Gc][Gd] | %6
w: ho- vah’s trump o’er all the earth shall|sound; When the|na- tions all shall rise, march- ing|
w: mil- lions crowd the judg- ment bar a-|round; When the|hosts of great and small, o- ver|
w: right- eous Judge will her- ald far and|near; When the|na- tions He di- vides, as the|
 [Ge][Ge][^Ge][Gd] [Ac]2 [Ac][FA] | GG[Ge][Ge] [Fd][Fd] [FB]>[FB] | [Ec]6 ||"^Refrain" [EG][Gc] | %10
w: forth in sol- emn tread, Tell, oh,|tell me, on which side will you be|found?||
w: there be- fore Him stand, With the|just up- on the right will you be|found?|On the|
w: shep- herd doth his sheep, Tell, oh,|tell me, on which side will you ap-|pear?||
!>(! [Fc]2!>)! [FB]4 [FA][FB] |!>(! [FA]2!>)! [EG]4 [EG][Gc] | [GB][GB][Gd][Gd] [^Fd][Fc][FB][FA] | %13
w: |||
w: Lord’s side, on the|Lord’s side, I will|an- swer when Je- ho- vah’s trump shall|
w: |||
 G6 G[Gc] |!<(! [Fc]2!<)! [FB]4 [FA][FA] |!>(! [FA]2!>)! [EG]4 [EG][Ge] | %16
w: |||
w: sound; On the|Lord’s side, on the|Lord’s side, Safe- ly|
w: |||
 [Fd][Fc][FB][FA] [EG][EG] [FA]>[FB] | z2 x8 |] %18
w: ||
w: ga- thered with the faith- ful I’ll be||
w: ||
V:2
 x2 | x8 | x6 G x | x8 | (D2 B,2 B,2) x2 | x8 | x8 | GG x6 | x6 || x2 | x8 | x8 | x8 | %13
 (G2 D2 D2) G x | x8 | x8 | x8 | [Ec]6 ED C2 |] %18
V:3
 [C,G,][C,G,] | [C,C][F,B,][E,C][D,B,] [C,C]2 [E,C][G,B,] | CC [G,B,]>[G,B,] [A,C]2 [E,C][C,G,] | %3
w: ~ ~|~ ~ ~ ~ ~ ~ ~|~ ~ ~ ~ ~ ~ ~|
 [D,G,][D,^F,][D,A,][D,G,] [D,F,][D,F,] [D,A,]>[D,C] | ([G,B,]2 G,2) G,2 [C,G,][C,G,] | %5
w: ~ ~ ~ ~ ~ ~ ~ ~|~ * ~ ~ ~|
 [C,C][F,B,][E,C][D,B,] [C,C]2 [E,C][G,B,] | CC[B,D][B,D] [A,E]2 [F,F][F,C] | %7
w: ~ ~ ~ ~ ~ ~ ~|~ ~ ~ ~ ~ ~ ~|
 [E,C][E,C][C,C][C,C] [F,A,][F,A,] G,>G, | G,6 || [C,C][C,E] |!>(! [D,D]2!>)! [G,D]4 [G,D][G,D] | %11
w: ~ ~ ~ ~ ~ ~ ~ ~|~|~ ~|~ ~ ~ ~|
!>(! [C,D]2!>)! [C,C]4 [C,C][C,E] | [D,D][D,D][D,B,][D,B,] [D,A,][D,A,][D,D][D,C] | %13
w: ~ ~ ~ ~|~ ~ ~ ~ ~ ~ ~ ~|
 [G,B,]2 [G,B,]2 [G,B,]2 [E,C][C,E] |!<(! [D,D]2!<)! [G,D]4 [G,D][G,D] | %15
w: shall sound * * *||
!>(! [C,C]2!>)! [C,C]4 [C,C][C,C] | [F,A,][F,A,][F,B,][F,C] [G,C][G,C] [G,B,]>[G,D] | %17
w: ||
 (z G,G,F, E,2) x4 |] %18
w: |
V:4
 x2 | x8 | CC x6 | x8 | x2 (G,2 G,2) x2 | x8 | CC x6 | x6 G,>G, | x6 || x2 | x8 | x8 | x8 | x8 | %14
 x8 | x8 | x8 | [C,C]6 x4 |] %18

